X: 1
T: Vi ska st\"alla till en roliger dans
M: 3/4
L: 1/8
K: Eb
|: E>G G>G G>G | (GF) A>G EE | E>B B>B B>B | (BA) c>B G z/A/ | F2 E2 z2 :|
|: B2 e3 c | (cB) BA G2 | B2 e3 c | (cB) BA G z/A/ | F2 E2 z2 :|
